src/lib/packages/icons/src/assets/line/parking-square.svg

<svg xmlns="http://www.w3.org/2000/svg" width="24" height="24" fill="none"><path fill="currentColor" d="M17.625 2.25H6.375c-2.66 0-4.125 1.465-4.125 4.125v11.25c0 2.66 1.465 4.125 4.125 4.125h11.25c2.66 0 4.125-1.465 4.125-4.125V6.375c0-2.66-1.465-4.125-4.125-4.125Zm2.625 15.375c0 1.84-.785 2.625-2.625 2.625H6.375c-1.84 0-2.625-.785-2.625-2.625V6.375c0-1.84.785-2.625 2.625-2.625h11.25c1.84 0 2.625.785 2.625 2.625v11.25ZM13 7.25h-3a.75.75 0 0 0-.75.75v8a.75.75 0 0 0 1.5 0v-3.25H13A2.752 2.752 0 0 0 15.75 10 2.752 2.752 0 0 0 13 7.25Zm0 4h-2.25v-2.5H13c.689 0 1.25.561 1.25 1.25s-.561 1.25-1.25 1.25Z"/></svg>

<svg width="24" height="24" viewBox="0 0 24 24" fill="none" xmlns="http://www.w3.org/2000/svg">
<path d="M17.625 2.25H6.375C3.715 2.25 2.25 3.715 2.25 6.375V17.625C2.25 20.285 3.715 21.75 6.375 21.75H17.625C20.285 21.75 21.75 20.285 21.75 17.625V6.375C21.75 3.715 20.285 2.25 17.625 2.25ZM20.25 17.625C20.25 19.465 19.465 20.25 17.625 20.25H6.375C4.535 20.25 3.75 19.465 3.75 17.625V6.375C3.75 4.535 4.535 3.75 6.375 3.75H17.625C19.465 3.75 20.25 4.535 20.25 6.375V17.625ZM13 7.25H10C9.586 7.25 9.25 7.586 9.25 8V16C9.25 16.414 9.586 16.75 10 16.75C10.414 16.75 10.75 16.414 10.75 16V12.75H13C14.517 12.75 15.75 11.517 15.75 10C15.75 8.483 14.517 7.25 13 7.25ZM13 11.25H10.75V8.75H13C13.689 8.75 14.25 9.311 14.25 10C14.25 10.689 13.689 11.25 13 11.25Z" fill="currentColor"/>
</svg>
